symbolic/22x22/emblems/vcs-conflicting.svg

<svg xmlns="http://www.w3.org/2000/svg" width="22" height="22"><g transform="translate(-1 -1)"><circle style="fill:#f44336" cx="12" cy="12" r="10"/><path style="fill:#fff" d="m8 6 4 4 4-4 2 2-4 4 4 4-2 2-4-4-4 4-2-2 4-4-4-4z"/></g></svg>

<svg xmlns="http://www.w3.org/2000/svg" width="22" height="22" version="1.1">
 <g transform="translate(-1,-1)">
  <circle style="fill:#f44336" cx="12" cy="12" r="10"/>
  <path style="fill:#ffffff" d="M 8,6 12,10 16,6 18,8 14,12 18,16 16,18 12,14 8,18 6,16 10,12 6,8 Z"/>
 </g>
</svg>
